svg/fluentui-system-icons/ic_fluent_building_townhouse_32_regular.svg

<svg width="32" height="32" viewBox="0 0 32 32" fill="none" xmlns="http://www.w3.org/2000/svg">
<path d="M8.7092 3.47231C9.45452 2.84256 10.5455 2.84256 11.2908 3.47231L15.9362 7.3974C15.9578 7.41562 15.979 7.43411 16 7.45286C16.021 7.43411 16.0422 7.41562 16.0638 7.3974L20.7092 3.47231C21.4545 2.84256 22.5455 2.84256 23.2908 3.47231L27.9362 7.3974C28.6108 7.96742 29 8.80574 29 9.68893V25.9999C29 27.6568 27.6569 28.9999 26 28.9999H6C4.34315 28.9999 3 27.6568 3 25.9999V9.68893C3 8.80574 3.38917 7.96742 4.06379 7.3974L8.7092 3.47231ZM15 26.9999V22.9999H12V26.9999H15ZM15 20.9999V9.68893C15 9.39454 14.8703 9.1151 14.6454 8.92509L10 5L5.3546 8.92509C5.12972 9.1151 5 9.39454 5 9.68893V25.9999C5 26.5522 5.44772 26.9999 6 26.9999H10V21.9999C10 21.4476 10.4477 20.9999 11 20.9999H15ZM17 26.9999H20V22.9999H17V26.9999ZM17 20.9999H21C21.5523 20.9999 22 21.4476 22 21.9999V26.9999H26C26.5523 26.9999 27 26.5522 27 25.9999V9.68893C27 9.39454 26.8703 9.1151 26.6454 8.92509L22 5L17.3546 8.92509C17.1297 9.1151 17 9.39454 17 9.68893V20.9999ZM11.25 11.9999C11.25 12.6903 10.6904 13.2499 10 13.2499C9.30964 13.2499 8.75 12.6903 8.75 11.9999C8.75 11.3096 9.30964 10.7499 10 10.7499C10.6904 10.7499 11.25 11.3096 11.25 11.9999ZM22 13.2499C21.3096 13.2499 20.75 12.6903 20.75 11.9999C20.75 11.3096 21.3096 10.7499 22 10.7499C22.6904 10.7499 23.25 11.3096 23.25 11.9999C23.25 12.6903 22.6904 13.2499 22 13.2499ZM11.25 16.9999C11.25 17.6903 10.6904 18.2499 10 18.2499C9.30964 18.2499 8.75 17.6903 8.75 16.9999C8.75 16.3096 9.30964 15.7499 10 15.7499C10.6904 15.7499 11.25 16.3096 11.25 16.9999ZM22 18.2499C21.3096 18.2499 20.75 17.6903 20.75 16.9999C20.75 16.3096 21.3096 15.7499 22 15.7499C22.6904 15.7499 23.25 16.3096 23.25 16.9999C23.25 17.6903 22.6904 18.2499 22 18.2499Z" fill="#212121"/>
</svg>

<svg xmlns="http://www.w3.org/2000/svg" width="32" height="32"><path d="M8.71 3.472a2 2 0 0 1 2.58 0l4.646 3.925.064.056.064-.056 4.645-3.925a2 2 0 0 1 2.582 0l4.645 3.925A3 3 0 0 1 29 9.69V26a3 3 0 0 1-3 3H6a3 3 0 0 1-3-3V9.69a3 3 0 0 1 1.064-2.292l4.645-3.925ZM15 27v-4h-3v4h3Zm0-6V9.689a1 1 0 0 0-.355-.764L10 5 5.355 8.925A1 1 0 0 0 5 9.69V26a1 1 0 0 0 1 1h4v-5a1 1 0 0 1 1-1h4Zm2 6h3v-4h-3v4Zm0-6h4a1 1 0 0 1 1 1v5h4a1 1 0 0 0 1-1V9.689a1 1 0 0 0-.355-.764L22 5l-4.645 3.925A1 1 0 0 0 17 9.69V21Zm-5.75-9a1.25 1.25 0 1 1-2.5 0 1.25 1.25 0 0 1 2.5 0ZM22 13.25a1.25 1.25 0 1 1 0-2.5 1.25 1.25 0 0 1 0 2.5ZM11.25 17a1.25 1.25 0 1 1-2.5 0 1.25 1.25 0 0 1 2.5 0ZM22 18.25a1.25 1.25 0 1 1 0-2.5 1.25 1.25 0 0 1 0 2.5Z"/></svg>
